X: 6
T: Denis Murphy's
R: polka
M: 2/4
L: 1/8
K: Dmaj
|: e/ |f/g/f/e/ d/c/d/B/ | AD FA | GE e>d | cB BA |
f/g/f/e/ d/c/d/B/ | AD FA | GE e>f | ed d3/ :|
|: B/ |Af f/^e/f | Ag g/f/g | Af f/^e/f | e/f/e/d/ BA |
Af f/^e/f | Ag g/f/g/a/ | ba f/a/a/f/ | ed d3/ :|


Tune 357	Setting 357

